neat/src/img/paypal.svg

<?xml version="1.0" encoding="UTF-8"?>
<svg width="20px" height="24px" viewBox="0 0 20 24" version="1.1" xmlns="http://www.w3.org/2000/svg" xmlns:xlink="http://www.w3.org/1999/xlink">
    <!-- Generator: Sketch 48.2 (47327) - http://www.bohemiancoding.com/sketch -->
    <title>paypal</title>
    <desc>Created with Sketch.</desc>
    <defs></defs>
    <g id="Page-1" stroke="none" stroke-width="1" fill="none" fill-rule="evenodd">
        <g id="paypal" fill-rule="nonzero">
            <path d="M5.04071116,20.9932315 C3.56207165,20.9980175 2.07867767,21.0028036 0.600038169,20.9980175 C0.200662868,20.9980175 -0.0560783969,20.6438473 0.0104841532,20.232244 C0.257716482,18.6480501 0.490685408,17.0638561 0.737917737,15.4844483 C0.961377726,14.0629812 1.20385559,12.6415141 1.42731558,11.215261 C1.58896748,10.1862528 1.73160152,9.15724465 1.89325343,8.1282365 C2.13097682,6.61104773 2.37820915,5.09385897 2.62068701,3.5766702 C2.75856658,2.70560283 2.88693721,1.83453547 3.02006231,0.963468099 C3.10564273,0.393924051 3.55256271,0.00625121232 4.13260779,0.00625121232 C6.63345789,0.00625121232 9.13906246,-0.0128931254 11.6399126,0.0158233812 C13.0044448,0.0301816345 14.3594682,0.202480674 15.6003843,0.839029904 C16.8888451,1.48993739 17.6733323,2.54766205 17.9300735,3.98348738 C18.0489352,4.6535392 18.006145,5.32359102 17.8777744,5.99364284 C17.345274,5.72083603 16.7842468,5.5437509 16.2042017,5.42888488 C15.4815226,5.28530234 14.7398256,5.24701367 14.0028831,5.2374415 C12.1438861,5.21829716 10.2801347,5.22308325 8.42113781,5.2374415 C8.02651697,5.24222758 7.67468635,5.40495445 7.51778891,5.81177163 C7.4464719,5.99842892 7.42269956,6.20901664 7.39417275,6.41481827 C7.26580212,7.19973612 7.14218595,7.98944005 7.01856979,8.77914398 C6.92348043,9.3869767 6.81888214,9.99480943 6.72854725,10.6026421 C6.61444002,11.3732017 6.51459619,12.1485474 6.36720769,12.9143209 C6.31966301,13.1679834 6.21506472,13.426432 6.2911362,13.6992388 C6.23408259,13.8715378 6.18178344,14.0438369 6.15325664,14.2257081 C6.02013154,15.1111337 5.88225197,15.9965593 5.7443724,16.8819849 C5.57796602,17.9540678 5.42106858,19.0309368 5.24039881,20.1030197 C5.18334519,20.399757 5.20236306,20.7156386 5.04071116,20.9932315 Z" id="Shape" fill="#012D8A"></path>
            <path d="M5.23752667,21.3080904 C5.39880362,21.0286026 5.37982986,20.7000817 5.42726425,20.3960774 C5.60751496,19.297739 5.76404846,18.1994007 5.93006885,17.0961591 C6.06762859,16.1890493 6.20518834,15.2819395 6.33800465,14.3748297 C6.36646529,14.1885045 6.41864312,14.0119858 6.4755644,13.8354672 C6.73171013,13.4235903 7.0874681,13.2421683 7.57129894,13.2470716 C8.78087603,13.2470716 9.99045312,13.3108145 11.1952868,13.153909 C12.2720475,13.0166167 13.3013739,12.7322256 14.2595487,12.2026696 C15.7347584,11.3838191 16.7403676,10.1334786 17.3712451,8.54971397 C17.6700818,7.79460637 17.9072538,7.01498229 18.006866,6.20103514 C18.0163529,6.18142196 18.0210963,6.16180877 18.0305832,6.14709888 L18.0590438,6 C19.1879824,6.61781531 19.7903993,7.60828112 19.9516762,8.90275129 C20.0844925,9.96676655 19.927959,11.001362 19.6718133,12.0310542 C19.4678454,12.8499047 19.1547784,13.6197221 18.708895,14.3257968 C17.9831488,15.4829747 16.9727962,16.2871152 15.7157847,16.7480251 C15.06119,16.9882866 14.3876216,17.1255789 13.6998229,17.2089349 C13.1258667,17.277581 12.5519105,17.277581 11.9779543,17.2824843 C11.3992547,17.2824843 11.0292664,17.6110052 10.9486279,18.1994007 C10.7731206,19.4399346 10.5976134,20.6804685 10.388902,21.9210025 C10.3177504,22.3426859 10.2608292,22.7692727 10.1896776,23.1860528 C10.0995522,23.6959956 9.7485377,24 9.25047654,24 L5.62174528,24 C5.16163164,24 4.93868998,23.7254154 5.01458501,23.2645056 C5.10471036,22.6957232 5.19483571,22.1318442 5.28496107,21.5630618 C5.29919138,21.4698992 5.32290858,21.3767366 5.23752667,21.3080904 Z" id="Shape" fill="#019AE0"></path>
            <path d="M18,5.78000465 L17.9705841,5.91554899 C17.9607788,5.93362157 17.9558762,5.95169415 17.9460709,5.96524858 C17.8431153,6.71526062 17.5979828,7.43364564 17.289116,8.12943993 C16.6370638,9.58880069 15.5977023,10.7409276 14.0729787,11.4954578 C13.0826438,11.9834174 12.0138664,12.2454698 10.9058679,12.3719779 C9.66059525,12.5120404 8.41041993,12.4578226 7.16024462,12.4578226 C6.66017449,12.4578226 6.29247587,12.6204758 6.02773286,13 C5.94929049,12.7469839 6.05714875,12.4984859 6.10617523,12.2590243 C6.25325468,11.5361211 6.36111295,10.8041816 6.4787765,10.0767603 C6.57192682,9.50295594 6.67978508,8.92915156 6.77783805,8.35534717 C6.90530691,7.60985328 7.03277576,6.86887754 7.16514727,6.12338365 C7.1994658,5.93362157 7.2190764,5.7348232 7.29261612,5.55409741 C7.45440352,5.1700551 7.81719949,5.01192004 8.2241193,5.01192004 C10.1410548,4.9983656 12.0628929,4.99384746 13.9798284,5.01192004 C14.7397389,5.02095633 15.4996494,5.05710148 16.2497546,5.19264583 C16.8478777,5.3010813 17.4312928,5.46825266 17.9754868,5.72578691 C17.9852921,5.75289578 17.9950974,5.76645021 18,5.78000465 Z" id="Shape" fill="#001F6B"></path>
            <path d="M18,6.5 C18.1,6.31818182 18.15,6.13636364 18.25,6 C18.15,6.13636364 18.1,6.31818182 18,6.5 Z" id="Shape" fill="#012D8A"></path>
        </g>
    </g>
</svg>

<svg width="20" height="24" viewBox="0 0 20 24" xmlns="http://www.w3.org/2000/svg"><title>paypal</title><g fill="none"><path d="M5.04 20.993c-1.478.005-2.961.01-4.44.005-.4 0-.656-.354-.59-.766.248-1.584.48-3.168.728-4.748.223-1.421.466-2.842.69-4.269.161-1.029.304-2.058.465-3.087.238-1.517.485-3.034.728-4.551.138-.871.266-1.742.4-2.614.085-.57.532-.957 1.112-.957 2.5 0 5.006-.019 7.507.01 1.364.014 2.72.186 3.96.823 1.289.65 2.073 1.709 2.33 3.144.119.67.076 1.34-.052 2.01a6.34 6.34 0 0 0-1.674-.564c-.722-.144-1.464-.182-2.201-.192a314.74 314.74 0 0 0-5.582 0c-.394.005-.746.168-.903.575-.072.186-.095.397-.124.603-.128.785-.252 1.574-.375 2.364-.096.608-.2 1.216-.29 1.824-.115.77-.214 1.546-.362 2.311-.047.254-.152.512-.076.785-.057.173-.11.345-.138.527-.133.885-.27 1.77-.409 2.656-.166 1.072-.323 2.149-.504 3.221-.057.297-.038.613-.2.89z" fill="#012D8A"/><path d="M5.238 21.308c.16-.28.142-.608.19-.912.18-1.098.336-2.197.502-3.3.138-.907.275-1.814.408-2.721.028-.186.08-.363.138-.54.256-.411.611-.593 1.095-.588 1.21 0 2.42.064 3.624-.093 1.077-.137 2.106-.422 3.065-.951 1.475-.82 2.48-2.07 3.111-3.653.3-.755.536-1.535.636-2.349.01-.02.014-.04.024-.054L18.059 6c1.129.618 1.731 1.608 1.893 2.903.132 1.064-.024 2.098-.28 3.128a7.79 7.79 0 0 1-.963 2.295 5.81 5.81 0 0 1-2.993 2.422 8.92 8.92 0 0 1-2.016.46c-.574.07-1.148.07-1.722.074-.579 0-.949.329-1.03.917-.175 1.24-.35 2.481-.56 3.722-.07.422-.127.848-.198 1.265-.09.51-.441.814-.94.814H5.622c-.46 0-.683-.275-.607-.735l.27-1.702c.014-.093.038-.186-.047-.255z" fill="#019AE0"/><path d="M18 5.78l-.03.136c-.01.018-.014.036-.024.05-.103.75-.348 1.468-.657 2.163-.652 1.46-1.691 2.612-3.216 3.366-.99.488-2.06.75-3.167.877-1.245.14-2.496.086-3.746.086-.5 0-.868.162-1.132.542-.079-.253.03-.502.078-.741.147-.723.255-1.455.373-2.182.093-.574.2-1.148.299-1.722.127-.745.255-1.486.387-2.232.034-.19.054-.388.128-.569.161-.384.524-.542.931-.542a349.16 349.16 0 0 1 5.756 0c.76.009 1.52.045 2.27.18a6.896 6.896 0 0 1 1.725.534c.01.027.02.04.025.054z" fill="#001F6B"/><path d="M18 6.5c.1-.182.15-.364.25-.5-.1.136-.15.318-.25.5z" fill="#012D8A"/></g></svg>
